!!!!SEGMENT: pl-kk--kk-i-1--013-004_borek-krzysztof--missa-te-deum-laudamus-sanctus.krn
!!!cenid: 15xx:699
!!!COM: Borek, Krzysztof
!!!COM-rismID: pe30020454
!!!CDT: 1520-1573
!!!CNT: Polish
!!!OPR: [Missa] Te Deum laudamus
!!!OTL: Sanctus
!!!OMV: 004
!!!PDT:
!!!AGN: Sacred; Mass
!!!YEC: Copyright 2022 Narodowy Instytut Fryderyka Chopina (https://polishscores.org)
!!!YEM: License CC-BY-4.0 (https://creativecommons.org/licenses/by/4.0)
!!!SMS-siglum: PL-Kk
!!!SMS-shelfmark: Kk.I.1
!!!SMS-shelfwork: 013-004 M
!!!SMS-variant:
!!!SMS-altvar:
!!!NIFC-rismSourceID: 300257954
!!!NIFC-rismChildID: 300257967
!!!NIFC-islandoraID: pl-kk:1
!!!URL-pdf-islandora: https://repozytorium.nifc.pl/islandora/object/pl-kk%3A1/datastream/PDF/view
!!!URL-scan: https://polish.musicsources.pl/pl/lokalizacje/galeria/rekopisy/5736 @EN{Scan on Polish Music Sources Website} @PL{Skany w portalu Dziedzictwo Muzyki Polskiej w otwartym dostępie}
!!!IIIF: https://repozytorium.nifc.pl/islandora/object/pl-kk%3A1/datastream/IIIF/view
!!!ONB-nifc: UWAGA: Cantus (s. 75r-81v, skan 0077-0084), Altus (s. 73r-78v, skan 0265-0271), Tenor (s. 71r-76r, skan 0460-0465), Bassus (s. 70v-76r, skan 0632-0637). Części Mszy: 1. Kyrie, 2. Et in terra, 3. Patrem, 4. Sanctus, 5. Agnus Dei
!!!AIN: 1 alto 1 bass 1 soprn 1 tenor
!!!key: e:phr
**kern	**text	**mod-text	**kern	**text	**mod-text	**kern	**text	**mod-text	**kern	**text	**mod-text
*part4	*	*	*part3	*	*	*part2	*	*	*part1	*	*
*staff4	*	*	*staff3	*	*	*staff2	*	*	*staff1	*	*
*I"BASSVS	*	*	*I"TENOR	*	*	*I"ALTVS	*	*	*I"CANTVS	*	*
*mI"Basso	*	*	*mI"Tenore II	*	*	*mI"Tenore I	*	*	*mI"Alto	*	*
*I'B	*	*	*I'T	*	*	*I'A	*	*	*I'C	*	*
*	*	*	*mI'T 2	*	*	*mI'T 1	*	*	*mI'A	*	*
*Ibass	*	*	*Itenor	*	*	*Ialto	*	*	*Isoprn	*	*
*	*	*	*	*	*	*mItenor	*	*	*mIalto	*	*
*ICvox	*	*	*ICvox	*	*	*ICvox	*	*	*ICvox	*	*
!LO:MO:mod=*null:null	!	!	!LO:MO:mod=*null:null	!	!	!LO:MO:mod=*null:null	!	!	!LO:MO:mod=*null:null	!	!
*stria6	*	*	*stria6	*	*	*stria6	*	*	*stria6	*	*
*clefF4	*	*	*clefC4	*	*	*clefC3	*	*	*clefC3	*	*
*	*	*	*mclefGv2	*	*	*mclefGv2	*	*	*mclefG2	*	*
*k[]	*	*	*k[]	*	*	*k[]	*	*	*k[]	*	*
*e:phr	*	*	*e:phr	*	*	*e:phr	*	*	*e:phr	*	*
*M2/1	*	*	*M2/1	*	*	*M2/1	*	*	*M2/1	*	*
*met(C|)	*	*	*met(C|)	*	*	*met(C|)	*	*	*met(C|)	*	*
*mmet(c|)	*	*	*mmet(c|)	*	*	*mmet(c|)	*	*	*mmet(c|)	*	*
=1-	=1-	=1-	=1-	=1-	=1-	=1-	=1-	=1-	=1-	=1-	=1-
*xywh-#636:5830,1564,4199,770	*	*	*xywh-#464:5877,3145,4180,999	*	*	*xywh-#270:1546,2328,4024,755	*	*	*xywh-#83:1541,1610,3991,815	*	*
0r	.	.	0E	San-	San-	1.e	San-	San-	1r	.	.
.	.	.	.	.	.	.	.	.	0e	San-	San-
.	.	.	.	.	.	4d/	.	.	.	.	.
.	.	.	.	.	.	4c/	.	.	.	.	.
=2-	=2-	=2-	=2-	=2-	=2-	=2-	=2-	=2-	=2-	=2-	=2-
*lig	*	*	*lig	*	*	*	*	*	*	*	*
1E	San-	San-	1G	.	.	2B/	.	.	.	.	.
.	.	.	.	.	.	2.c/	.	.	.	.	.
1F	.	.	1A	.	.	.	.	.	2c/	.	.
.	.	.	.	.	.	4B/	.	.	.	.	.
.	.	.	.	.	.	1A/	.	.	2d\	.	.
*Xlig	*	*	*Xlig	*	*	*	*	*	*	*	*
=3-	=3-	=3-	=3-	=3-	=3-	=3-	=3-	=3-	=3-	=3-	=3-
0E	.	.	0B	.	.	.	.	.	0e	-ctus	-ctus
.	.	.	.	.	.	4G/	.	.	.	.	.
.	.	.	.	.	.	4F/	.	.	.	.	.
.	.	.	.	.	.	1G	-ctus	.	.	.	.
=4-	=4-	=4-	=4-	=4-	=4-	=4-	=4-	=4-	=4-	=4-	=4-
2.AA/	.	.	0A	-ctus	-ctus	2A/	.	-ctus	2r	.	.
*	*	*	*	*	*	*	*	*	*	*ij	*
.	.	.	.	.	.	1c	.	[Sa-	1e	San-	San-
4BB/	.	.	.	.	.	.	.	.	.	.	.
2C/	.	.	.	.	.	.	.	.	.	.	.
2D/	.	.	.	.	.	4B/	.	.	4d\	.	.
.	.	.	.	.	.	4A/	.	.	4c\	.	.
=5-	=5-	=5-	=5-	=5-	=5-	=5-	=5-	=5-	=5-	=5-	=5-
2E\	.	.	2r	.	.	2G/	.	.	2B/	.	.
*	*	*	*	*ij	*	*	*	*	*	*	*
2F\	.	.	1A	San-	San-	2A/	.	.	2A/	.	.
*	*	*	*	*	*	*custos:c	*	*	*	*	*
2.E\	.	.	.	.	.	1B	.	-ctus]	0e	-ctus	-ctus
.	.	.	4G/	.	.	.	.	.	.	.	.
4D/	.	.	4F/	.	.	.	.	.	.	.	.
!	!	!	!	!	!	!LO:LB:g=original	!	!	!	!	!
=6-	=6-	=6-	=6-	=6-	=6-	=6-	=6-	=6-	=6-	=6-	=6-
*	*	*	*	*	*	*lig	*ij	*	*	*	*
*	*	*	*	*	*	*xywh-#270:1286,3141,4387,1020	*	*	*	*	*
2C/	.	.	2E/	.	.	1c	San-	San-	.	.	.
4BB/	.	.	1A	.	.	.	.	.	.	.	.
4AA/	.	.	.	.	.	.	.	.	.	.	.
1BB	.	.	.	.	.	1d	.	.	1r	.	.
.	.	.	2G/	.	.	.	.	.	.	.	.
*	*	*	*	*	*	*Xlig	*	*	*	*	*
=7-	=7-	=7-	=7-	=7-	=7-	=7-	=7-	=7-	=7-	=7-	=7-
*custos:E	*	*	*	*	*	*	*	*	*	*	*
*	*	*	*	*	*	*	*	*	*lig	*	*
1AA	-ctus	-ctus	1A	-ctus	-ctus	2A/	-ctus	-ctus	1e	San-	San-
*	*	*	*	*Xij	*	*	*Xij	*	*	*	*
.	.	.	.	.	.	2c/	D(o-	Do-	.	.	.
!LO:LB:g=original	!	!	!	!	!	!	!	!	!	!	!
*lig	*ij	*	*	*	*	*	*	*	*	*	*
*xywh-#636:5822,2371,4142,810	*	*	*	*	*	*	*	*	*	*	*
1E	San-	San-	1r	.	.	2B/	-mi)-	-mi-	1g	.	.
.	.	.	.	.	.	2G/	-n(u)s	-nus	.	.	.
*	*	*	*	*	*	*	*	*	*Xlig	*	*
=8-	=8-	=8-	=8-	=8-	=8-	=8-	=8-	=8-	=8-	=8-	=8-
*	*	*	*lig	*	*	*	*	*	*	*	*
1G	.	.	1B	San-	San-	0r	.	.	2.d\	-ctus	-ctus
*	*	*	*	*	*	*	*	*	*	*Xij	*
.	.	.	.	.	.	.	.	.	4e\	.	.
*Xlig	*	*	*	*	*	*	*	*	*	*	*
2.D/	-ctus	-ctus	1d	.	.	.	.	.	2f\	Do-	Do-
*	*	*	*	*	*	*	*	*	*custos:c	*	*
.	.	.	.	.	.	.	.	.	2f\	-mi-	-mi-
4E\	.	.	.	.	.	.	.	.	.	.	.
*	*Xij	*	*Xlig	*	*	*	*	*	*	*	*
!	!	!	!	!	!	!	!	!	!LO:LB:g=original	!	!
=9-	=9-	=9-	=9-	=9-	=9-	=9-	=9-	=9-	=9-	=9-	=9-
*	*	*	*custos:B	*	*	*	*	*	*xywh-#83:1517,2382,4039,806	*	*
2F\	Do-	Do-	1A	-ctus	-ctus	1r	.	.	2c/	-nus	-nus
2F\	-mi-	-mi-	.	.	.	.	.	.	2d\	De-	De-
*	*	*	*xywh-#465:1198,677,4248,874	*	*	*	*	*	*	*	*
!	!	!	!LO:PB:g=original	!	!	!	!	!	!	!	!
1E	-nus	-nus	1B	Do-	Do-	2r	.	.	2e\	-us	-us
.	.	.	.	.	.	2B/	Do-	Do-	1e\	Sab-	Sab-
=10-	=10-	=10-	=10-	=10-	=10-	=10-	=10-	=10-	=10-	=10-	=10-
2r	.	.	2A/	-mi-	-mi-	2c/	-mi-	-mi-	.	.	.
*	*ij	*	*	*	*	*	*	*	*	*	*
2D/	Do-	Do-	2A/	-nus	-nus	2A/	-nus	-nus	1d	-ba-	-ba-
2BB/	-mi-	-mi-	1G	De-	De-	2B/	de-	De-	.	.	.
2C/	-nus	-nus	.	.	.	1G/	-us	-us	4c/	.	.
*	*Xij	*	*	*	*	*	*	*	*	*	*
.	.	.	.	.	.	.	.	.	4B/	-oth	.
=11-	=11-	=11-	=11-	=11-	=11-	=11-	=11-	=11-	=11-	=11-	=11-
1AA	De-	De-	1A	-us	.	.	.	.	1c	.	-oth
.	.	.	.	.	.	2F/	sab-	Sab-	.	.	.
2GG/	-us	-us	2B\	.	-us	1.G	-ba-	-ba-	2r	.	.
*	*	*	*	*	*	*	*	*	*	*ij	*
2C/	d(o-	Do-	1c\	Sab-	Sab-	.	.	.	2.e\	Do-	Do-
=12-	=12-	=12-	=12-	=12-	=12-	=12-	=12-	=12-	=12-	=12-	=12-
2C/	-mi)-	-mi-	.	.	.	.	.	.	.	.	.
.	.	.	.	.	.	.	.	.	4d\	   mi-	   mi-
2GG/	-n(u)ſ	-nus	2B\	.	.	2d\	-oth	-oth	1g	-nus	-nus
*	*	*	*	*	*	*	*ij	*	*	*	*
1D	De-	De-	1A	-ba-	-ba-	2.d\	Do-	Do-	.	.	.
.	.	.	.	.	.	.	.	.	2f\	De-	De-
.	.	.	.	.	.	4c/	-mi-	-mi-	.	.	.
=13-	=13-	=13-	=13-	=13-	=13-	=13-	=13-	=13-	=13-	=13-	=13-
2GG/	-us	-us	00G;	-oth.	-oth.	2B/	-nus	-nus	2g\	-us	-us
1C	Sab-	Sab-	.	.	.	2c/	de-	De-	1e	Sab-	Sab-
.	.	.	.	.	.	2G/	-us	-us	.	.	.
2C/	-ba-	-ba-	.	.	.	1c\	sab-	Sab-	2e\	-ba-	-ba-
=14-	=14-	=14-	=14-	=14-	=14-	=14-	=14-	=14-	=14-	=14-	=14-
*	*	*	*	*	*	*	*	*	*custos:f	*	*
0GG;	-oth.	-oth.	.	.	.	.	.	.	0d;<	-oth	-oth.
*	*	*	*	*	*	*	*	*	*	*Xij	*
.	.	.	.	.	.	4B/	-ba-	-ba-	.	.	.
.	.	.	.	.	.	4A/	.	.	.	.	.
*	*	*	*	*	*	*custos:A	*	*	*	*	*
!	!	!	!	!	!	!LO:N:vis=0	!	!	!	!	!
.	.	.	.	.	.	1B;	-oth	-oth.	.	.	.
*	*	*	*	*	*	*	*Xij	*	*	*	*
!LO:LB:g=original	!	!	!	!	!	!LO:LB:g=original	!	!	!LO:LB:g=original	!	!
=15-	=15-	=15-	=15-	=15-	=15-	=15-	=15-	=15-	=15-	=15-	=15-
*xywh-#636:5890,3198,4182,1042	*	*	*	*	*xywh-#270:5958,729,4208,933	*	*	*xywh-#83:1475,3176,4063,941	*	*	*
0r	.	.	0c	Ple-	Ple-	1.A	Ple-	Ple-	1f	Ple-	Ple-
.	.	.	.	.	.	.	.	.	2f\	-ni	-ni
.	.	.	.	.	.	2A/	-ni	-ni	2f\	ſu(n)t	sunt
=16-	=16-	=16-	=16-	=16-	=16-	=16-	=16-	=16-	=16-	=16-	=16-
1r	.	.	1c	-ni	-ni	2G/	ſu(n)t	sunt	2g\	cae-	cae-
.	.	.	.	.	.	2G/	cae-	cae-	2e\	-li	-li
1F	Ple-	Ple-	0c	ſu(n)t	sunt	2A/	-li	-li	2.f\	et	et
.	.	.	.	.	.	1c\	et	et	.	.	.
.	.	.	.	.	.	.	.	.	4e\	.	.
=17-	=17-	=17-	=17-	=17-	=17-	=17-	=17-	=17-	=17-	=17-	=17-
2F\	-ni	-ni	.	.	.	.	.	.	4f\	.	ter-
.	.	.	.	.	.	.	.	.	4g\	ter-	.
2F\	ſunt	sunt	.	.	.	4B/	t(er)-	ter-	2a\	-ra	.
.	.	.	.	.	.	4A/	.	.	.	.	.
2E\	cae-	cae-	1c	cae-	cae-	1e	-ra	-ra	1g	.	-ra
2C/	-li	-li	.	.	.	.	.	.	.	.	.
=18-	=18-	=18-	=18-	=18-	=18-	=18-	=18-	=18-	=18-	=18-	=18-
*	*	*	*custos:A	*	*	*	*	*	*	*	*
2D\	et	et	1B	-li	-li	1r	.	.	2r	.	.
2E\	.	.	.	.	.	.	.	.	1e	et	et
*	*	*	*xywh-#465:1385,1540,4094,868	*	*	*	*	*	*	*	*
!	!	!	!LO:LB:g=original	!	!	!	!	!	!	!	!
1F	ter-	ter-	1A	et	et	2r	.	.	.	.	.
.	.	.	.	.	.	1A/	.	[et	2d\	t(er)-	ter-
=19-	=19-	=19-	=19-	=19-	=19-	=19-	=19-	=19-	=19-	=19-	=19-
0E	-ra	.	0B	ter-	ter-	.	.	.	2e\	-ra	-ra
*	*	*	*	*	*	*	*	*	*	*ij	*
.	.	.	.	.	.	4G/	.	.	2g\	ple-	ple-
.	.	.	.	.	.	4F/	.	.	.	.	.
.	.	.	.	.	.	1G	.	ter-	2g\	-ni	-ni
.	.	.	.	.	.	.	.	.	2g\	ſu(n)t	sunt
=20-	=20-	=20-	=20-	=20-	=20-	=20-	=20-	=20-	=20-	=20-	=20-
0AA	.	-ra	0A	-ra	-ra	1A	.	-ra]	2e\	cae-	cae-
.	.	.	.	.	.	.	.	.	2c/	-li	-li
.	.	.	.	.	.	1r	.	.	2.e\	et	et
*	*	*	*	*	*	*	*	*	*custos:g	*	*
.	.	.	.	.	.	.	.	.	4f\	t(er)-	ter-
!	!	!	!	!	!	!	!	!	!LO:LB:g=original	!	!
=21-	=21-	=21-	=21-	=21-	=21-	=21-	=21-	=21-	=21-	=21-	=21-
*	*	*	*	*	*	*	*	*	*xywh-#83:5928,742,4001,936	*	*
2r	.	.	1E	ma-	ma-	1r	.	.	0g	-ra	-ra
*	*ij	*	*	*	*	*	*	*	*	*	*
2C/	ple-	ple-	.	.	.	.	.	.	.	.	.
*	*	*	*	*	*	*	*ij	*	*	*	*
2C/	-ni	-ni	1G	-ie-	-ie-	1c	Ple-	ple-	.	.	.
2C/	ſunt	sunt	.	.	.	.	.	.	.	.	.
=22-	=22-	=22-	=22-	=22-	=22-	=22-	=22-	=22-	=22-	=22-	=22-
2AA/	cae-	cae-	1A	-ſta-	-sta-	2c/	-ni	-ni	2r	.	.
*custos:f	*	*	*	*	*	*	*	*	*	*	*
2FF/	-li	-li	.	.	.	2c/	ſu(n)t	sunt	2f\	ple-	ple-
*xywh-#637:1520,717,4117,912	*	*	*	*	*	*	*	*	*	*	*
!LO:PB:g=original	!	!	!	!	!	!	!	!	!	!	!
2.F\	et	et	1A	-tis	-tis	2A/	cae-	cae-	2f\	-ni	-ni
.	.	.	.	.	.	2F/	-li	-li	2f\	ſu(n)t	sunt
4E/	.	.	.	.	.	.	.	.	.	.	.
=23-	=23-	=23-	=23-	=23-	=23-	=23-	=23-	=23-	=23-	=23-	=23-
2C/	.	.	1A	glo-	glo-	2c/	et	et	2e\	cae-	cae-
2D/	.	.	.	.	.	2F/	t(er)-	ter-	1d	-li	-li
1E	ter-	ter-	1G	-ri-	-ri-	1G	-ra	-ra	.	.	.
*	*	*	*	*	*	*	*Xij	*Xij	*	*	*
.	.	.	.	.	.	.	.	.	2c/	et	et
=24-	=24-	=24-	=24-	=24-	=24-	=24-	=24-	=24-	=24-	=24-	=24-
1D	.	.	1A	-ae	-ae	2r	.	.	2d\	t(er)-	ter-
*	*	*	*	*	*	*custos:d	*	*	*	*	*
.	.	.	.	.	.	2d\	glo-	glo-	2d\	-ra	-ra
!	!	!	!	!	!	!LO:LB:g=original	!	!	!	!	!
*	*	*	*	*	*	*xywh-#270:5947,1543,4081,789	*	*	*	*Xij	*
2GG/	-ra	-ra	2B\	.	.	2d\	-ri-	-ri-	2r	.	.
*	*Xij	*	*	*	*	*	*	*	*	*	*
2C/	glo-	glo-	1c\	tu-	tu-	1e\	-a	-a	2G/	glo-	glo-
=25-	=25-	=25-	=25-	=25-	=25-	=25-	=25-	=25-	=25-	=25-	=25-
2C/	-ri-	-ri-	.	.	.	.	.	.	2G/	-ri-	-ri-
2GG/	-a	-a	2B\	.	.	4d\	tu-	tu-	1g	-a	-a
.	.	.	.	.	.	4c\	.	.	.	.	.
1D	tu-	tu-	1A	.	.	0d	-a	-a	.	.	.
.	.	.	.	.	.	.	.	.	2f\	tu-	tu-
=26-	=26-	=26-	=26-	=26-	=26-	=26-	=26-	=26-	=26-	=26-	=26-
*	*	*	*custos:E	*	*	*	*	*	*	*	*
1GG	-a	-a	[0G	-ae	-ae	.	.	.	1g	-a	-a
2r	.	.	.	.	.	2r	.	.	2r	.	.
*	*ij	*	*	*	*	*	*ij	*	*	*ij	*
2GG/	glo-	glo-	.	.	.	2B/	glo-	glo-	2d\	glo-	glo-
=27-	=27-	=27-	=27-	=27-	=27-	=27-	=27-	=27-	=27-	=27-	=27-
2GG/	-ri-	-ri-	0G_	.	.	2B/	-ri-	-ri-	2d\	-ri-	-ri-
2GG/	-a	-a	.	.	.	2B/	-a	-a	2d\	-a	-a
1C	tu-	tu-	.	.	.	2.G/	tu-	tu-	4c/	tu-	tu-
.	.	.	.	.	.	.	.	.	4d\	.	.
.	.	.	.	.	.	.	.	.	4e\	.	.
.	.	.	.	.	.	4A/	.	.	4c/	.	.
=28-	=28-	=28-	=28-	=28-	=28-	=28-	=28-	=28-	=28-	=28-	=28-
0GG;	-a	-a	0G];	.	.	1B	.	.	0d;	-a	-a.
*	*Xij	*	*	*	*	*	*	*	*	*Xij	*
!	!	!	!	!	!	!LO:N:vis=0	!	!	!	!	!
.	.	.	.	.	.	1B;<	-a	-a	.	.	.
*	*	*	*	*	*	*	*Xij	*	*	*	*
!LO:LB:g=original	!	!	!LO:LB:g=original	!	!	!LO:LB:g=original	!	!	!LO:LB:g=original	!	!
=29-	=29-	=29-	=29-	=29-	=29-	=29-	=29-	=29-	=29-	=29-	=29-
*xywh-#637:1534,1582,4029,797	*	*	*xywh-#465:1384,2322,4094,857	*	*	*xywh-#270:5955,2346,4122,818	*	*	*xywh-#83:5899,1543,4035,863	*	*
1.E	O-	O-	2.E/	O-	O-	1.B	O-	O-	0r	.	.
.	.	.	4F/	.	.	.	.	.	.	.	.
.	.	.	2G/	.	.	.	.	.	.	.	.
4D/	.	.	1A\	-ſan-	-san-	2c/	-ſan-	.	.	.	.
4C/	.	.	.	.	.	.	.	.	.	.	.
=30-	=30-	=30-	=30-	=30-	=30-	=30-	=30-	=30-	=30-	=30-	=30-
1BB	-ſan-	-san-	.	.	.	1d	-na	-san-	1B	O-	O-
.	.	.	2G/	.	.	.	.	.	.	.	.
1AA	-na	-na	0A	-na	-na	2c/	.	-na	4c\	.	.
.	.	.	.	.	.	.	.	.	4d\	.	.
.	.	.	.	.	.	1c\	in	in	1e\	-ſan-	-san-
=31-	=31-	=31-	=31-	=31-	=31-	=31-	=31-	=31-	=31-	=31-	=31-
2r	.	.	.	.	.	.	.	.	.	.	.
2D/	in	in	.	.	.	1f	ex-	ex-	2d\	-na	.
1F	ex-	ex-	1A	in	in	.	.	.	1c	.	-na
.	.	.	.	.	.	2f\	-cel-	-cel-	.	.	.
=32-	=32-	=32-	=32-	=32-	=32-	=32-	=32-	=32-	=32-	=32-	=32-
1C	-cel-	-cel-	2.c\	ex-	ex-	1e	-ſis	-sis	2r	.	.
.	.	.	.	.	.	.	.	.	2e\	in	in
.	.	.	4B\	.	.	.	.	.	.	.	.
2D/	-ſis	-sis	2A/	.	.	2r	.	.	2f\	ex-	ex-
*	*	*	*	*	*	*	*ij	*	*	*	*
2E\	.	[O-	2G/	.	.	2.e\	in	in	4e\	.	.
.	.	.	.	.	.	.	.	.	4d\	.	.
=33-	=33-	=33-	=33-	=33-	=33-	=33-	=33-	=33-	=33-	=33-	=33-
2AA/	.	-san-	2A/	.	.	.	.	.	4c/	.	.
.	.	.	.	.	.	4d\	.	.	4B/	.	.
2C/	.	.	2G/	.	.	4c/	.	.	1e	.	.
.	.	.	.	.	.	4B/	.	.	.	.	.
1D	.	-na	1F	-cel-	-cel-	2A/	.	.	.	.	.
.	.	.	.	.	.	2A/	ex-	ex-	2d\	-cel-	-cel-
=34-	=34-	=34-	=34-	=34-	=34-	=34-	=34-	=34-	=34-	=34-	=34-
*	*	*	*custos:A	*	*	*	*	*	*custos:f	*	*
2AA/	.	in	00E;	-ſis	-sis	1A	-cel-	-cel-	00e;<	-ſis	-ſis
2AA/	.	ex-	.	.	.	.	.	.	.	.	.
2C/	.	-cel-	.	.	.	2E/	.	.	.	.	.
2AA/	.	.	.	.	.	1A/	.	.	.	.	.
!	!	!	!	!	!	!	!	!	!LO:LB:g=original	!	!
=35-	=35-	=35-	=35-	=35-	=35-	=35-	=35-	=35-	=35-	=35-	=35-
0E;<	.	-sis]	.	.	.	.	.	.	.	.	.
.	.	.	.	.	.	4G/	.	.	.	.	.
.	.	.	.	.	.	4F/	.	.	.	.	.
*	*	*	*	*	*	*custos:d	*	*	*	*	*
!	!	!	!	!	!	!LO:N:vis=0	!	!	!	!	!
.	.	.	.	.	.	1G;	-ſis	-sis	.	.	.
*	*	*	*	*	*	*	*Xij	*	*	*	*
!LO:LB:g=original	!	!	!LO:LB:g=original	!	!	!	!	!	!	!	!
=36-	=36-	=36-	=36-	=36-	=36-	=36-	=36-	=36-	=36-	=36-	=36-
*xywh-#637:1520,2340,4063,831	*	*	*xywh-#465:1412,3134,4083,726	*	*	*xywh-#270:5932,3147,4185,1049	*	*xywh-#83:5917,2378,4112,777	*	*	*
0r	.	.	1A	Be-	Be-	1d	Be-	Be-	1f	Be-	Be-
.	.	.	2A/	-ne-	-ne-	2.d\	-ne-	-ne-	2f\	-ne-	-ne-
.	.	.	2A/	-dic-	-dic-	.	.	.	2f\	-dic-	-dic-
.	.	.	.	.	.	4c/	-dic-	-dic-	.	.	.
=37-	=37-	=37-	=37-	=37-	=37-	=37-	=37-	=37-	=37-	=37-	=37-
0r	.	.	2G/	-tus	-tus	2B/	-t(us)	-tus	2e\	-tus	-tus
.	.	.	2A/	qui	qui	1A	qui	qui	2d\	qui	qui
.	.	.	1B	Ve-	ve-	.	.	.	1e	ve-	ve-
.	.	.	.	.	.	2G/	ve-	ve-	.	.	.
=38-	=38-	=38-	=38-	=38-	=38-	=38-	=38-	=38-	=38-	=38-	=38-
1D	Be-	Be-	0A	-nit	-nit	2A/	-nit	-nit	2f\	-nit	-nit
*	*	*	*	*	*	*	*ij	*	*	*ij	*
.	.	.	.	.	.	2f\	be-	be-	2d\	be-	be-
2D/	-ne-	-ne-	.	.	.	2f\	-ne-	-ne-	2d\	-ne-	-ne-
2D/	-di-	-di-	.	.	.	2f\	-dic-	-dic-	2d\	-dic-	-dic-
=39-	=39-	=39-	=39-	=39-	=39-	=39-	=39-	=39-	=39-	=39-	=39-
2C/	-ctus	-ctus	0r	.	.	2g\	-t(us)	-tus	2e\	-tus	-tus
2D/	qui	qui	.	.	.	2f\	qui	qui	4d\	qui	qui
.	.	.	.	.	.	.	.	.	4c\	.	.
1E	ve-	ve-	.	.	.	1e	ve-	ve-	1B	ve-	ve-
=40-	=40-	=40-	=40-	=40-	=40-	=40-	=40-	=40-	=40-	=40-	=40-
0AA	-nit	-nit	1c	in	in	2c/	-nit	-nit	1A	-nit	-nit
*	*	*	*	*	*	*	*Xij	*	*	*Xij	*
.	.	.	.	.	.	2e\	in	in	.	.	.
.	.	.	2c\	no-	no-	2e\	no-	no-	1r	.	.
.	.	.	2c\	-mi-	-mi-	2e\	-mi-	-mi-	.	.	.
=41-	=41-	=41-	=41-	=41-	=41-	=41-	=41-	=41-	=41-	=41-	=41-
0r	.	.	2B\	-ne	-ne	4d/	-ne	-ne	1r	.	.
.	.	.	.	.	.	4c/	.	.	.	.	.
.	.	.	1A	do-	Do-	4B/	Do-	Do-	.	.	.
.	.	.	.	.	.	4A/	.	.	.	.	.
*	*	*	*	*	*	*custos:A	*	*	*	*	*
.	.	.	.	.	.	1B	-mi-	-mi-	2r	.	.
*	*	*	*custos:A	*	*	*	*	*	*	*	*
.	.	.	2G/	-mi-	-mi-	.	.	.	2e\	in	in
!	!	!	!LO:LB:g=original	!	!	!LO:PB:g=original	!	!	!	!	!
=42-	=42-	=42-	=42-	=42-	=42-	=42-	=42-	=42-	=42-	=42-	=42-
*	*	*	*xywh-#465:5827,731,4072,800	*	*	*xywh-#271:1471,765,4073,759	*	*	*	*	*
2r	.	.	1A	-ni	-ni	2A/	-ni	-ni	2c/	no-	no-
*	*	*	*	*	*	*	*ij	*	*	*	*
*	*	*	*	*	*	*	*	*	*custos:e	*	*
2A\	in	in	.	.	.	2c/	in	in	2f\	-mi-	-mi-
*	*	*	*	*	*	*	*	*	*xywh-#83:5893,3155,4035,820	*	*
!	!	!	!	!	!	!	!	!	!LO:LB:g=original	!	!
2A\	no-	no-	1r	.	.	2c/	no-	no-	1e	-ne	-ne
*custos:D	*	*	*	*	*	*	*	*	*	*	*
2A\	-mi-	-mi-	.	.	.	2c/	-mi-	-mi-	.	.	.
!LO:LB:g=original	!	!	!	!	!	!	!	!	!	!	!
=43-	=43-	=43-	=43-	=43-	=43-	=43-	=43-	=43-	=43-	=43-	=43-
*xywh-#637:1475,3126,4097,1129	*	*	*	*	*	*	*	*	*	*	*
2D/	-ne	-ne	0r	.	.	4B/	-ne	-ne	4d/	do-	Do-
.	.	.	.	.	.	4A/	.	.	4c/	.	.
2F\	do-	Do-	.	.	.	1A	Do-	Do-	4B/	.	.
.	.	.	.	.	.	.	.	.	4A/	.	.
1E	-mi-	-mi-	.	.	.	.	.	.	1B	-mi-	-mi-
.	.	.	.	.	.	2G/	-mi-	-mi-	.	.	.
=44-	=44-	=44-	=44-	=44-	=44-	=44-	=44-	=44-	=44-	=44-	=44-
2AA/	-ni	-ni	2r	.	.	1A	-ni	-ni	2A/	-ni	-ni
*	*ij	*	*	*	*	*	*Xij	*	*	*ij	*
2F\	in	in	2A/	in	in	.	.	.	2c/	in	in
2F\	no-	no-	2A/	no-	no-	1r	.	.	2c/	no-	no-
2D/	-mi-	-mi-	2A/	-mi-	-mi-	.	.	.	2d\	-mi-	-mi-
=45-	=45-	=45-	=45-	=45-	=45-	=45-	=45-	=45-	=45-	=45-	=45-
2D/	-ne	-ne	2D/	-ne	-ne	2r	.	.	2f\	-ne	-ne
2C/	do-	Do-	2E/	do-	Do-	2A/	in	in	1e	do-	Do-
1D	-mi-	-mi-	1F	-mi-	-mi-	2A/	no-	no-	.	.	.
.	.	.	.	.	.	2A/	-mi-	-mi-	2d\	-mi-	-mi-
=46-	=46-	=46-	=46-	=46-	=46-	=46-	=46-	=46-	=46-	=46-	=46-
2AA/	-ni	-ni	[0El	-ni	-ni	1c	-ne	-ne	[0el	-ni	-ni
*	*	*	*	*	*	*	*	*	*	*	*
2AA/	in	in	.	.	.	.	.	.	.	.	.
2GG/	no-	no-	.	.	.	2B/	.	.	.	.	.
2AA/	-mi-	-mi-	.	.	.	1A/	Do-	Do-	.	.	.
=47-	=47-	=47-	=47-	=47-	=47-	=47-	=47-	=47-	=47-	=47-	=47-
1E	-ne	-ne	0E_	.	.	.	.	.	0e_	.	.
.	.	.	.	.	.	2G/	-mi-	-mi-	.	.	.
1AA	do-	Do-	.	.	.	2A/	-ni	-ni	.	.	.
*	*	*	*	*	*	*	*ij	*	*	*	*
.	.	.	.	.	.	1c\	Do-	Do-	.	.	.
=48-	=48-	=48-	=48-	=48-	=48-	=48-	=48-	=48-	=48-	=48-	=48-
1AA	-mi-	-mi-	0E;]	.	.	.	.	.	0e;<]	.	.
.	.	.	.	.	.	2c/	-mi-	-mi-	.	.	.
!LO:MO:mod=!null:null	!	!	!	!	!	!LO:MO:mod=!null:null	!	!	!	!	!
!LO:N:vis=0	!	!	!	!	!	!LO:N:vis=0	!	!	!	!	!
1E;<	-ni	-ni	.	.	.	1B;	-ni	-ni	.	.	.
*	*Xij	*	*	*	*	*	*Xij	*	*	*	*
=||	=||	=||	=||	=||	=||	=||	=||	=||	=||	=||	=||
*-	*-	*-	*-	*-	*-	*-	*-	*-	*-	*-	*-
!!!system-decoration: [(s1,s2,s3,s4)]
!!LO:MO:ori
!!!RDF**kern: < = below
!!!RDF**kern: l = terminal long
!!LO:MO:end
!!!filter-modern: sic -sq | autostem -r | tie -s | shed -e "s/-//B" | shed -e "s/^custos:/Xcustos:/I" | humtr -p | modori -m
!!!ENC: Mateusz Solarz
!!!END: 2022-02-16
!!!EED: Urszula Świątek
!!!EEV: 2022-02-23
!!!ENC-modern: Marta Lawrence
!!!END-modern: 2022-07-17
!!!ENC-iiif: Elżbieta Cabała
!!!END-iiif: 2022-09-02
